X:1
T:Lowlands of Holland
M:4/4
L:1/8
K:F
 F| C3/2 D/2 F3/2 G/2 FF Fd| cA GF D3F/2-E/2| C3/2 D/2 F3/2 G/2 F3/2 F/2 Fd|\
 cd/2-e/2 fA c z3/2 c c/2|f-e dcd-cB-A| G3/2 A/2B/2-A/2G/2-F/2 E/2- D3/2 D3/2 F/2|\
 C3/2- D/2 FG F2 Fd| cA G3/2 A/2 F2 z2|
